gesture-pinch.svg

<svg fill="currentColor" viewBox="0 0 24 24"><path d="M13 9a1 1 0 0 1 1-1 1 1 0 0 1 1 1v4.47l1.21.13 4.94 2.2c.52.24.85.76.85 1.34v4.36c-.03.82-.68 1.47-1.5 1.5H14c-.38 0-.74-.15-1-.43l-4.9-4.2.74-.77c.19-.21.46-.32.74-.32h.22L13 19zm1-4c1.42 0 2.74.76 3.45 2 1.11 1.9.46 4.35-1.45 5.46v-1.23c.64-.56 1-1.38 1-2.23a3 3 0 0 0-3-3 3 3 0 0 0-3 3c0 .85.36 1.67 1 2.23v1.23c-1.23-.71-2-2.03-2-3.46a4 4 0 0 1 4-4M4 9l3 3H5v3H3v-3H1zm0-2L1 4h2V1h2v3h2zm5 7c.73 0 1.41.19 2 .54v1.22c-.53-.47-1.23-.76-2-.76a3 3 0 0 0-3 3c0 1 .5 1.87 1.22 2.42L9.31 22H9a4 4 0 0 1-4-4 4 4 0 0 1 4-4"/></svg>

<svg  viewBox="0 0 24 24" fill="currentColor"><path  d="M13,9A1,1 0 0,1 14,8A1,1 0 0,1 15,9V13.47L16.21,13.6L21.15,15.8C21.67,16.04 22,16.56 22,17.14V21.5C21.97,22.32 21.32,22.97 20.5,23H14C13.62,23 13.26,22.85 13,22.57L8.1,18.37L8.84,17.6C9.03,17.39 9.3,17.28 9.58,17.28H9.8L13,19V9M14,5C15.42,5 16.74,5.76 17.45,7C18.56,8.9 17.91,11.35 16,12.46V11.23C16.64,10.67 17,9.85 17,9A3,3 0 0,0 14,6A3,3 0 0,0 11,9C11,9.85 11.36,10.67 12,11.23V12.46C10.77,11.75 10,10.43 10,9A4,4 0 0,1 14,5M4,9L7,12H5V15H3V12H1L4,9M4,7L1,4H3V1H5V4H7L4,7M9,14C9.73,14 10.41,14.19 11,14.54V15.76C10.47,15.29 9.77,15 9,15A3,3 0 0,0 6,18C6,19 6.5,19.87 7.22,20.42L9.31,22H9A4,4 0 0,1 5,18A4,4 0 0,1 9,14Z"/></svg>
